X:43
T:Deffrown! Deffrown! - Awake! Awake!
M:6/8
L:1/8
Q:120
C:Trad.
R:Plygain Carol
K:G
D | G2 D G2 A | B2 c d3- d3 d3 | c2 B AGA | B2 A G3- G2 D |
G2 D G2 A | B2 c d3- d3 d3 | c2 B AGA | B2 A G3- G2 ||
B | d2 d d2 B | c2 c c2 A | B2 B B2 G | A2 A A3- A2 D |
G2 D G2 A | B2 c d3- d3 d3 | c2 B AGA | B2 A G2 ||
